X: 26
T:O'Rourkes' Feast, The
M:6/8
L:1/8
C:Thurlough O'Carolan
S:Complete works of . . . (#199)
R:Dbl. Jig
Z:Ed Wosika
K:G
D|GG/A/B/c/ dBG| ccB c/d/ec| dBd e/f/ge|f/g/af g2d|
gab abg|.fg/2e dcB| cAd BGd|eee f2d/d/| g>gg gBd| ~gfg afd|
eee e/f/ge| dBG G2|| F/4D/4| DGG GDD| GG/A/B/c/ dBG/2F/2| EAA AEE|
AA/B/c/d/ ecA| .dc/2d dec| B>BB BB>A| G>GG GAG| G/2A/2F/2G/2E/2F/2 D2D|
DEF GB,D| (3G/4A/2G/2)FG AFD| d2c B/c/dG| F/G/AD G2||

